images/facebook.svg

<svg width="10" height="20" viewBox="0 0 10 20" fill="none" xmlns="http://www.w3.org/2000/svg">
<path d="M6.4908 19.2558V10.4723H9.43911L9.88051 7.04918H6.4908V4.86364C6.4908 3.87259 6.76604 3.19714 8.18733 3.19714L10 3.1963V0.134737C9.68636 0.093172 8.61042 0 7.35864 0C4.74517 0 2.95593 1.59518 2.95593 4.5248V7.04927H0V10.4724H2.95584V19.2559L6.4908 19.2558Z" fill="white"/>
</svg>

<svg width="10" height="20" fill="none" xmlns="http://www.w3.org/2000/svg"><path d="M6.49 19.256v-8.784h2.95l.44-3.423H6.49V4.864c0-.991.276-1.667 1.697-1.667H10V.134A24.294 24.294 0 0 0 7.359 0C4.745 0 2.956 1.595 2.956 4.525v2.524H0v3.423h2.956v8.784H6.49z" fill="#fff"/></svg>
